X: 1
T: Garrett Barry's
M: 4/4
L: 1/8
R: reel
K: Ador
|: G3B d2Bd | edBe dBAB | G2GB d2BG | ABGE D2DE |
 G2GB d2Bd | edBA GABd | edBA Bdef |1 gedB A2DE :|2 gedB A4 ||
g2gg gage | dBBA GABd | g2fa gedg | eaag a2ga |
bg~g2 a2ge | dBAB GABd | edBA Bdef |1 gedB A2de :|2 gedB A4 ||
